X: 19
T: Tick Dance Song (h)
C: Anon.
%%abc-version 2.0
%%abcx-abcm2ps-target-version 5.9.1 (29 Sep 2008)
%%abc-creator hum2abc beta
%%abcx-conversion-date 2020/08/10 20:56:09
%%abc-copyright Electronic Copyright 2000 David Huron
%%abc-edited-by David Huron
%%abcx-initial-encoding-date August 27, 2000
%%humdrum-veritas 894292478
%%humdrum-veritas-data 311871480
%%linebreak <none>
%%barnumbers 0
L: 1/4
M: 2/4
Q: 1/4=100
K: F clef=bass
F,/ F,/F, | 
F,/ F,/G, | 
A,!tenuto!A,/ !tenuto!A,/ | 
^G,z | 
F,/ F,/F, | 
C,/ C,/F, | 
D,2 | 
C,z | 
F,/ F,/F, | 
F,/ F,/G, | 
A,!tenuto!A,/ !tenuto!A,/ | 
^G,z | 
F,/ F,/F, | 
C,/ C,/F, | 
D,2 | 
C,z | 
F,/< F,/F, | 
F,/< F,/G, | 
A,A, | 
G,F,/ D,/ | 
F,2 | 
C,/ C,/F, | 
D,2 | 
C,z | 
F,F,3// G,// | 
G,2 | 
A,A, | 
G,F,/ D,// | 
F,2 | 
C,/< C,/F, | 
D,2 | 
C,z |]  


